!!!SOCIAL_FUNCTION:	songs of personal narratives concerning war
!!!PDT:	1918

Specific Region: Dakotas, Minnesota, Montana, Nebraska
!!!REG: Dakotas and Montana
!!!LING_GROUP: Siouan
!!!LANG: Tone
!!!OTL@ENG: I Struck the Enemy
!!!ONM: No. 173
**kern
*Imale
*clefF4
*k[b-e-a-d-]
*M2/4
*MM60
8c
=1
16e-
8.c
16e-
8.c
=2
4B-
16B-
8A-
16c
=3
16c
8.B-
16c
8.B-
=4||
*M3/4
4A-
2A-
=5||
*M2/4
4B-
16c
8.B-
=6||
*M3/4
4A-
8E-
8C
4E-
=7||
*M2/4
4.A-
8B-
=8
2E-
=9
8C
8C
8C
8BB-
=10
[2AA-
=11
4.AA-]
8c
=12
12e-
12c
12c
(12e-
12c)
12c
=13
4B-
(12B-
12A-)
12A-
=14||
*M3/4
(12c
12B-)
12B-
8.B-
16B-
(12c
12B-)
12c
=15
4A-
2A-
=16||
*M2/4
8.B-
16B-
(12c
12B-)
12B-
=17||
*M3/4
4A-
12A-
12E-
12C
4E-
=18||
*M2/4
4.A-
8c
=19
2E-
=20
8C
8C
8C
8BB-
=21
2AA-
==
*-
!!!CNT: Native American -- Sioux
!!!MRD: 1911/07//-1914///
!!!OCL: Frances Densmore
!!!YOR1: Teton Sioux Music, Bulletin 61,
!!!YOR2: Bureau of American Ethnology, Smithsonian Institution
!!!PPR: Government Printing Office
!!!PPP: Washington, D.C.
!!!PDT: 1918///
!!!ENC: Craig Stuart Sapp
!!!END: 2002/03/25/
!!!EEV: 2002/03/31/
!!!AGN: War Song/Song of Personal Narrative Concerning War
!!!MPN@@SIO: Shung'ka-lu'zahang
!!!MPN@ENG: Swift Dog
!!!TXO: Teton Sioux
!!!MLC: Standing Rock Reservation, South Dakota, United States of America
!!!ARL: 45.9/-100.7#
!!!catalog: Catalogue No. 586
!!!PPG: 407
!!!EFL: 178/245
!!!VTS: 1383683876
